src/assets/img/logos/client-logo-sanofi.svg

<?xml version="1.0" encoding="UTF-8"?>
<svg width="249px" height="199px" viewBox="0 0 249 199" version="1.1" xmlns="http://www.w3.org/2000/svg" xmlns:xlink="http://www.w3.org/1999/xlink">
    <!-- Generator: Sketch 61.2 (89653) - https://sketch.com -->
    <title>client-logo-sanofi</title>
    <desc>Created with Sketch.</desc>
    <g id="Page-1" stroke="none" stroke-width="1" fill="none" fill-rule="evenodd">
        <g id="client-logo-sanofi" fill="#13283A" fill-rule="nonzero">
            <polygon id="Path" points="241.5 198.1 248.2 198.1 248.2 149.7 241.5 149.7"></polygon>
            <path d="M165.1,149.269 C178.7,149.269 189.5,159.969 189.5,173.669 C189.5,187.069 178.4,197.869 165.1,197.869 C151.6,197.869 140.6,187.069 140.6,173.669 C140.5,160.069 151.4,149.269 165.1,149.269 M164.8,155.669 C155.2,155.669 147.6,163.569 147.6,173.669 C147.6,183.469 155.3,191.269 165,191.269 C174.7,191.269 182.4,183.469 182.4,173.669 C182.4,163.469 175,155.669 164.8,155.669 M17,155.069 C12.6,155.069 8.8,158.069 9.3,162.669 C9.5,164.669 10.5,165.769 12.4,167.069 C12.9,167.369 14,167.869 15.4,168.369 C16.8,168.869 18.5,169.369 20.1,169.969 C23.6,171.169 27,172.469 28.6,173.969 C31.1,176.369 32.6,179.369 32.6,183.069 C32.6,192.069 25.3,198.169 16.7,198.169 C7.9,198.169 0.7,192.169 0.5,183.569 L7.3,183.569 C8.2,189.569 12,192.169 16.7,192.169 C21.1,192.169 25.7,189.369 25.7,184.269 C25.7,181.469 24.3,179.469 21.8,178.069 C21.1,177.769 20.2,177.369 19,176.869 C17.8,176.569 16.6,176.069 15.2,175.569 C12.6,174.669 9.7,173.769 7.9,172.669 C4.4,170.669 2.3,167.069 2.3,162.969 C2.3,154.869 8.5,149.069 17.3,149.069 C24.2,149.069 31.2,154.369 31.7,162.069 L24.8,162.069 C24.5,157.769 20.9,155.069 17,155.069" id="Shape"></path>
            <path d="M206.3,149.8 L229.1,149.8 L229.1,156.2 L208.6,156.2 L208.6,171.9 L229.1,171.9 L229.1,178.3 L208.6,178.3 L208.6,198 L201.6,198 L201.6,154.4 C201.7,151.8 203.7,149.8 206.3,149.8 M98.6,160.5 L98.6,197.7 L91.6,197.7 L91.6,153.7 C91.6,150.9 93.8,148.7 96.4,148.7 C98.1,148.7 99.5,149.4 100.5,151 C107.4,162.4 120.1,183.9 121.5,186.2 L121.5,149 L128.5,149 L128.5,193 C128.5,195.8 126.3,198 123.7,198 C122,198 120.6,197.3 119.6,195.7 C112.7,184.4 100,162.9 98.6,160.5 M50.8,183.6 L45.8,197.1 L38.4,197.1 L55.8,151.7 C56.5,150 58.2,148.7 60.3,148.7 C62.3,148.7 64.1,150 64.8,151.7 L82.2,197.1 L74.8,197.1 L69.8,183.6 L50.8,183.6 Z M60.3,158.1 L53.2,177.4 L67.5,177.4 L60.3,158.1 L60.3,158.1 Z M183.6,43.5 C163.8,14.5 141.6,39.9 119.3,36.8 C97.2,33.7 96.4,3.5 123.7,1 C124.4,0.9 125,0.9 125.7,0.9 C152.9,1.1 175.8,19 183.6,43.5 M184.2,44.9 C185.7,50.2 186.5,56 186.5,61.7 C186.5,95.7 159,123.1 125.1,123.1 C110.2,123.1 96.5,117.8 86,108.9 C90.1,110.6 95.1,111.3 99.4,111.3 C154.9,111.7 131.1,37.7 184.2,44.9" id="Shape"></path>
            <path d="M103.2,104.5 C95.5,109.2 83.2,107.8 74.6,96.2 C72.8,93.8 71.1,91.1 69.8,88.4 C66,80.5 63.9,71.6 63.9,62.3 C63.9,59.8 64,57.3 64.4,54.9 C77.9,73 93.3,72.4 103.2,78.3 C107.6,81.1 110.5,85.9 110.5,91.4 C110.6,96.9 107.6,101.8 103.2,104.5" id="Path"></path>
        </g>
    </g>
</svg>

<svg width="249" height="199" viewBox="0 0 249 199" xmlns="http://www.w3.org/2000/svg"><g id="Page-1" stroke="none" stroke-width="1" fill-rule="evenodd"><g id="client-logo-sanofi" fill-rule="nonzero"><path id="Path" d="M241.5 198.1h6.7v-48.4h-6.7z"/><path d="M165.1 149.269c13.6 0 24.4 10.7 24.4 24.4 0 13.4-11.1 24.2-24.4 24.2-13.5 0-24.5-10.8-24.5-24.2-.1-13.6 10.8-24.4 24.5-24.4m-.3 6.4c-9.6 0-17.2 7.9-17.2 18 0 9.8 7.7 17.6 17.4 17.6s17.4-7.8 17.4-17.6c0-10.2-7.4-18-17.6-18m-147.8-.6c-4.4 0-8.2 3-7.7 7.6.2 2 1.2 3.1 3.1 4.4.5.3 1.6.8 3 1.3s3.1 1 4.7 1.6c3.5 1.2 6.9 2.5 8.5 4 2.5 2.4 4 5.4 4 9.1 0 9-7.3 15.1-15.9 15.1-8.8 0-16-6-16.2-14.6h6.8c.9 6 4.7 8.6 9.4 8.6 4.4 0 9-2.8 9-7.9 0-2.8-1.4-4.8-3.9-6.2-.7-.3-1.6-.7-2.8-1.2-1.2-.3-2.4-.8-3.8-1.3-2.6-.9-5.5-1.8-7.3-2.9-3.5-2-5.6-5.6-5.6-9.7 0-8.1 6.2-13.9 15-13.9 6.9 0 13.9 5.3 14.4 13h-6.9c-.3-4.3-3.9-7-7.8-7M206.3 149.8h22.8v6.4h-20.5v15.7h20.5v6.4h-20.5V198h-7v-43.6c.1-2.6 2.1-4.6 4.7-4.6M98.6 160.5v37.2h-7v-44c0-2.8 2.2-5 4.8-5 1.7 0 3.1.7 4.1 2.3 6.9 11.4 19.6 32.9 21 35.2V149h7v44c0 2.8-2.2 5-4.8 5-1.7 0-3.1-.7-4.1-2.3-6.9-11.3-19.6-32.8-21-35.2m-47.8 23.1-5 13.5h-7.4l17.4-45.4c.7-1.7 2.4-3 4.5-3 2 0 3.8 1.3 4.5 3l17.4 45.4h-7.4l-5-13.5h-19Zm9.5-25.5-7.1 19.3h14.3l-7.2-19.3ZM183.6 43.5c-19.8-29-42-3.6-64.3-6.7C97.2 33.7 96.4 3.5 123.7 1c.7-.1 1.3-.1 2-.1 27.2.2 50.1 18.1 57.9 42.6m.6 1.4c1.5 5.3 2.3 11.1 2.3 16.8 0 34-27.5 61.4-61.4 61.4-14.9 0-28.6-5.3-39.1-14.2 4.1 1.7 9.1 2.4 13.4 2.4 55.5.4 31.7-73.6 84.8-66.4" id="Shape"/><path d="M103.2 104.5c-7.7 4.7-20 3.3-28.6-8.3-1.8-2.4-3.5-5.1-4.8-7.8-3.8-7.9-5.9-16.8-5.9-26.1 0-2.5.1-5 .5-7.4C77.9 73 93.3 72.4 103.2 78.3c4.4 2.8 7.3 7.6 7.3 13.1.1 5.5-2.9 10.4-7.3 13.1" id="Path"/></g></g></svg>
